icons/man_fill.svg

<svg width="48" height="48" viewBox="0 0 48 48" fill="none" xmlns="http://www.w3.org/2000/svg">
<path d="M28 8C28 10.2091 26.2091 12 24 12C21.7909 12 20 10.2091 20 8C20 5.79086 21.7909 4 24 4C26.2091 4 28 5.79086 28 8Z" fill="black"/>
<path d="M18 18.8206C17.7833 19.3328 17.5909 20.0103 17.4363 20.815C17.0295 22.9313 17 25.273 17 26C17 27.1046 16.1046 28 15 28C13.8954 28 13 27.1046 13 26C13 25.227 13.026 22.5687 13.5082 20.06C13.7458 18.8236 14.1243 17.4534 14.773 16.3428C15.4241 15.2281 16.595 14 18.4444 14H29.5556C31.405 14 32.5759 15.2281 33.227 16.3428C33.8757 17.4534 34.2542 18.8236 34.4918 20.06C34.974 22.5687 35 25.227 35 26C35 27.1046 34.1046 28 33 28C31.8954 28 31 27.1046 31 26C31 25.273 30.9705 22.9313 30.5637 20.815C30.4091 20.0103 30.2167 19.3328 30 18.8206V42C30 43.0747 29.1507 43.9573 28.0768 43.9985C27.0028 44.0398 26.0883 43.2249 26.0059 42.1534L25.0059 29.1534C25.002 29.1022 25 29.051 25 29H23C23 29.051 22.998 29.1022 22.9941 29.1534L21.9941 42.1534C21.9117 43.2249 20.9972 44.0398 19.9232 43.9985C18.8493 43.9573 18 43.0747 18 42V18.8206Z" fill="black"/>
</svg>

<svg
  xmlns="http://www.w3.org/2000/svg"
  width="24"
  height="24"
  viewBox="0 0 24 24"
  fill="none"
  stroke="currentColor"
  stroke-width="2"
  stroke-linecap="round"
  stroke-linejoin="round"
>
  <path d="M28 8a4 4 0 1 1-8 0 4 4 0 0 1 8 0" />
  <path d="M18 18.82c-.217.513-.41 1.19-.564 1.995C17.03 22.931 17 25.273 17 26a2 2 0 1 1-4 0c0-.773.026-3.431.508-5.94.238-1.236.616-2.607 1.265-3.717.651-1.115 1.822-2.343 3.671-2.343h11.112c1.849 0 3.02 1.228 3.671 2.343.649 1.11 1.027 2.48 1.265 3.717.482 2.509.508 5.167.508 5.94a2 2 0 1 1-4 0c0-.727-.03-3.069-.436-5.185-.155-.805-.347-1.482-.564-1.994V42a2 2 0 0 1-3.994.153l-1-13A2 2 0 0 1 25 29h-2q0 .076-.006.153l-1 13A2 2 0 0 1 18 42z" />
</svg>
